X: 12124
T: Evening Session, The
R: jig
M: 6/8
K: Dmajor
|:DFA DFA|dfd e2c|dfd fed|~B3 Bcd|
DFA DFA|dfd e2c|dfd fed|1 B2c d3:|2 B2c dag||
|:fed ~B3|fed ~B3|ecA BAG|~F3 DFA|
DFA DFA|dfd e2c|dfd fed|1 B2c dag:|2 B2c d3||

